X:1
T:14th of October
Z:Jack Campin: "Embro, Embro", transcription (c) 2001
F:07work/abc/Oct14.abc
N:King Crispian's Day - tune of the shoemakers
S:SMM 174
M:4/4
L:1/8
Q:1/4=120
K:D
 DE | F3    d  (A<F) (ED)| F2   A>B  A2   EF | G3    B      A<F  ED |F2 (E>F) E2 DE |
      F3    d  (A<F) (ED)| F2   d>e  d2   FG |(AB)  AF      GF   ED |B,2 D>E  D2   ||
(AB)|(de) (fe) (dB)   AF | A2  (d>e) d2   EF |G3    (A/B/) (AF) (ED)|F2  EF   E2 DE |
      FE   FD   B,D   EF |(GF) (GA) (BA) (Bc)|(dc) (de)    (fef)  A |B2  d>e  d2   |]





